X:411
T: AUF MATROSEN DIE ANKER GELICHTET
N: F0754
O: Europa, Mitteleuropa, Deutschland
R: Staende -, Matrosen - Lied
M: 4/4
L: 1/8
K: C
G,G, | C2CCC2B,C | D2G,2
G,2G,G, | G,2zG,F2ED | D2C2z4 |
C4B,2B,2 | A,4z4 |
G,4A,2B,2 | C4
DCB,C | D2DDEDCD | E4
DFED | C2CCCB,A,B, | C4z2

@@@ Tune index: 5842
